!!!SOCIAL_FUNCTION:	songs used in the treatment of the sick
!!!PDT:	1929
!!!OTL: No_54_They_Covered_Me_with_Sunshine.krn
!!!REG: Southwest
!!!LANG: Non-Tone
!!!LING_GROUP: Uto-Aztecan
**kern
*staff1
*clefF4
*k[b-e-]
*M2/4
4G\
=1
8B-\L
8B-\J
4B-\
=2||
*M3/4
8A\L
8B-\J
4A\
8.A\L
16G\Jk
=3||
*M2/4
[2G\
=4
8.G\L]
16E-\Jk
8E-\
8r
=5
2B-\
=6
8B-\L
8A\J
8B-\L
8B-\J
=7||
*M3/4
4A\
4A\
4A\
=8
8.G\L
16E-\Jk
4G\
8.G\L
16E-\Jk
=9||
*M2/4
4E-\
4r
=10
4A\
8.A\L
16G\Jk
=11
4G\
8G\L
16G\L
16E-\JJ
=12
4G\
8.G\L
16E-\Jk
=13
2E-\
=14
8.G\L
16E-\Jk
8.G\L
16G\Jk
=15
[2G\
=16
4G\]
4r
==
*-
